images/svg/Logo.svg

<svg width="106" height="60" viewBox="0 0 106 60" fill="none" xmlns="http://www.w3.org/2000/svg">
<path fill-rule="evenodd" clip-rule="evenodd" d="M50.1136 5.93452H49.977C49.7671 5.92181 49.5571 5.91672 49.3471 5.91163H49.3471H49.3269H48.8918C48.4946 5.91163 48.0898 5.92181 47.6876 5.94215C47.6573 5.93994 47.6269 5.93994 47.5966 5.94215C43.9522 6.14863 40.3817 7.05951 37.0805 8.62492L36.6479 8.83344V30.9746L37.6598 30.6313C38.5477 30.3261 39.4938 30.0515 40.4728 29.7972C43.1193 29.1178 45.8367 28.7567 48.568 28.7216V31.6306C48.2062 31.6332 47.8546 31.6434 47.503 31.6612H47.4195C45.3175 31.7765 43.2317 32.0967 41.1913 32.6173C38.6072 33.2643 36.1143 34.2357 33.7716 35.5086V7.11189C36.2047 5.69275 38.8253 4.62687 41.5556 3.94596C43.9527 3.32705 46.4169 3.00931 48.8918 3H49.3193C49.8303 3.01271 50.3287 3.0356 50.7967 3.0712C52.0297 3.15778 53.2528 3.35263 54.4521 3.65353V6.51685C53.2874 6.24551 52.1032 6.06695 50.9105 5.98284C50.8863 5.98079 50.8621 5.97872 50.8379 5.97666C50.5911 5.95561 50.344 5.93452 50.1136 5.93452ZM55.1528 8.86138C55.7877 8.9097 56.4455 8.93259 57.1108 8.93259C59.7125 8.92307 62.3031 8.59083 64.8239 7.94339C67.4068 7.29396 69.8986 6.32178 72.2411 5.04956V32.9402C69.8067 34.3585 67.1853 35.4243 64.4546 36.1061C62.0571 36.7227 59.5931 37.0395 57.1184 37.0496C55.2433 37.0647 53.3737 36.8443 51.553 36.3935V8.32229C51.983 8.42146 52.4257 8.51301 52.876 8.58929C53.6147 8.7139 54.3939 8.80544 55.1528 8.86138ZM69.3471 9.07753L68.3352 9.41828C67.4042 9.73106 66.4657 10.0108 65.5221 10.26C62.7749 10.966 59.9514 11.3281 57.1158 11.3382C56.4556 11.3382 55.8485 11.3204 55.2616 11.2822L54.4546 11.2288V31.3178V34.0057L55.1477 34.0667C55.7903 34.1227 56.4531 34.1506 57.1209 34.1506C59.3544 34.1412 61.5781 33.8533 63.7412 33.2937C65.5223 32.8469 67.2552 32.2243 68.9145 31.4348L69.3471 31.2263V9.07753Z" fill="#AFB1B8"/>
<path d="M35.7371 45.2123C35.5917 45.0614 35.4163 44.9429 35.2224 44.8645C35.0284 44.7861 34.8203 44.7495 34.6114 44.7571C34.3888 44.7541 34.1678 44.7956 33.9613 44.8791C33.7719 44.9546 33.5998 45.0679 33.4553 45.2123C33.3125 45.3571 33.2013 45.5303 33.129 45.7208C33.0497 45.9205 33.0101 46.1339 33.0126 46.3489V50.143C33.0036 50.4103 33.0546 50.6763 33.1619 50.9211C33.2514 51.1155 33.3807 51.2888 33.5413 51.4297C33.693 51.5573 33.871 51.6494 34.0625 51.6992C34.2469 51.7511 34.4376 51.7776 34.6291 51.7781C34.8404 51.7802 35.0495 51.735 35.2413 51.6458C35.4309 51.5629 35.6028 51.4437 35.7473 51.2949C35.8881 51.1475 36.0005 50.975 36.0786 50.7863C36.1597 50.595 36.201 50.3891 36.2001 50.1811V49.7564H35.2084V50.0947C35.2114 50.2101 35.1916 50.3251 35.1502 50.4329C35.1179 50.5136 35.0688 50.5865 35.006 50.6465C34.9446 50.6961 34.8742 50.7332 34.7986 50.7558C34.7316 50.7781 34.6617 50.7901 34.5912 50.7914C34.5026 50.8017 34.413 50.7883 34.3312 50.7526C34.2495 50.7169 34.1786 50.6601 34.1257 50.588C34.0322 50.4355 33.9864 50.2583 33.9942 50.0794V46.5422C33.988 46.3461 34.0297 46.1514 34.1156 45.9751C34.1671 45.8951 34.2399 45.8311 34.3258 45.7907C34.4117 45.7502 34.5071 45.7348 34.6013 45.7463C34.6868 45.7432 34.7717 45.7611 34.8488 45.7983C34.9259 45.8355 34.9929 45.8909 35.044 45.9599C35.155 46.1056 35.213 46.285 35.2084 46.4685V46.7965H36.19V46.41C36.1919 46.183 36.1507 45.9577 36.0685 45.7463C35.9953 45.5475 35.8825 45.3658 35.7371 45.2123Z" fill="#AFB1B8"/>
<path d="M41.6289 45.169C41.3127 44.902 40.9136 44.7545 40.5007 44.752C40.2987 44.7528 40.0984 44.7889 39.9087 44.8588C39.7161 44.9278 39.5384 45.0331 39.3851 45.169C39.2208 45.3167 39.0897 45.4978 39.0005 45.7005C38.9006 45.9322 38.8515 46.1828 38.8563 46.4354V50.0743C38.8495 50.3302 38.8987 50.5846 39.0005 50.8193C39.0903 51.015 39.2215 51.1886 39.3851 51.3279C39.5367 51.4687 39.7147 51.5776 39.9087 51.6483C40.0984 51.7181 40.2987 51.7543 40.5007 51.7551C40.7027 51.7547 40.9031 51.7186 41.0926 51.6483C41.29 51.5766 41.4719 51.4679 41.6289 51.3279C41.7871 51.186 41.9145 51.0129 42.0033 50.8193C42.1051 50.5846 42.1544 50.3302 42.1475 50.0743V46.4354C42.1524 46.1828 42.1032 45.9322 42.0033 45.7005C41.9151 45.5 41.7878 45.3193 41.6289 45.169ZM41.166 50.0743C41.1743 50.1713 41.1609 50.2689 41.1268 50.36C41.0926 50.4511 41.0386 50.5333 40.9687 50.6007C40.8377 50.7105 40.6725 50.7707 40.5019 50.7707C40.3313 50.7707 40.1662 50.7105 40.0352 50.6007C39.9652 50.5333 39.9112 50.4511 39.8771 50.36C39.8429 50.2689 39.8295 50.1713 39.8379 50.0743V46.4354C39.8295 46.3384 39.8429 46.2407 39.8771 46.1496C39.9112 46.0585 39.9652 45.9763 40.0352 45.909C40.1662 45.7991 40.3313 45.739 40.5019 45.739C40.6725 45.739 40.8377 45.7991 40.9687 45.909C41.0386 45.9763 41.0926 46.0585 41.1268 46.1496C41.1609 46.2407 41.1743 46.3384 41.166 46.4354V50.0743Z" fill="#AFB1B8"/>
<path d="M49.3673 51.6993V44.8105H48.4136L47.1614 48.4571H47.1437L45.8813 44.8105H44.9377V51.6993H45.9218V47.5086H45.9395L46.9033 50.4711H47.3941L48.3655 47.5086H48.3832V51.6993H49.3673Z" fill="#AFB1B8"/>
<path d="M54.9581 45.2935C54.8065 45.1236 54.6153 44.9942 54.4015 44.9172C54.1712 44.8423 53.9302 44.8062 53.6881 44.8104H52.226V51.6991H53.2075V49.0087H53.7134C54.0197 49.0227 54.3244 48.9579 54.5988 48.8206C54.822 48.6967 55.0081 48.5149 55.1377 48.2942C55.2512 48.111 55.3277 47.907 55.3628 47.6941C55.4014 47.4348 55.4192 47.1729 55.4159 46.9108C55.4255 46.58 55.3932 46.2494 55.3198 45.9267C55.2543 45.6884 55.1299 45.4705 54.9581 45.2935ZM54.4521 47.394C54.4479 47.5187 54.4168 47.641 54.361 47.7525C54.3049 47.8585 54.2162 47.9432 54.1081 47.9941C53.9627 48.0591 53.8041 48.0888 53.6451 48.0806H53.1974V45.7386H53.7033C53.8557 45.7311 54.0075 45.7607 54.146 45.825C54.2475 45.8832 54.3281 45.9723 54.3762 46.0793C54.4299 46.2003 54.4591 46.3308 54.4622 46.4633C54.4622 46.6082 54.4622 46.7608 54.4622 46.921C54.4622 47.0812 54.4723 47.2465 54.4622 47.394H54.4521Z" fill="#AFB1B8"/>
<path d="M59.6077 44.8105H58.8032L57.2854 51.6993H58.2669L58.5553 50.2193H59.8935L60.1819 51.6993H61.1635L59.6077 44.8105ZM58.702 49.281L59.1852 46.7838H59.2029L59.6836 49.281H58.702Z" fill="#AFB1B8"/>
<path d="M65.9497 48.9606H65.932L64.4496 44.8105H63.506V51.6993H64.4875V47.5569H64.5078L66.0079 51.6993H66.9312V44.8105H65.9497V48.9606Z" fill="#AFB1B8"/>
<path d="M71.9476 44.8105L71.1583 47.5493H71.1381L70.3488 44.8105H69.3091L70.6574 48.7877V51.6993H71.639V48.7877L72.9873 44.8105H71.9476Z" fill="#AFB1B8"/>
<path d="M33 53.6444H33.4731V54.9718H33.7943V53.6444H34.2649V53.3723H33V53.6444Z" fill="#AFB1B8"/>
<path d="M36.9767 53.3723L36.3569 54.9718H36.6984L36.83 54.6082H37.4675L37.6041 54.9718H37.9532L37.3182 53.3723H36.9767ZM36.9261 54.3386L37.1437 53.7461L37.3612 54.3386H36.9261Z" fill="#AFB1B8"/>
<path d="M40.9079 54.3821H41.2773V54.5881C41.1694 54.6746 41.0358 54.722 40.8978 54.7229C40.8333 54.7265 40.7689 54.7145 40.7099 54.688C40.6509 54.6614 40.5991 54.6211 40.5588 54.5703C40.474 54.4485 40.4322 54.3017 40.4399 54.1533C40.4399 53.7973 40.5942 53.6193 40.9003 53.6193C40.9809 53.6112 41.0617 53.6325 41.128 53.6791C41.1944 53.7257 41.2419 53.7947 41.2621 53.8735L41.5783 53.8125C41.51 53.4997 41.2849 53.3421 40.9003 53.3421C40.6947 53.3366 40.4947 53.4103 40.3413 53.5481C40.2607 53.6276 40.1983 53.7239 40.1586 53.8302C40.1188 53.9365 40.1026 54.0502 40.1111 54.1634C40.1017 54.3823 40.1749 54.5966 40.316 54.7636C40.3943 54.8444 40.4892 54.9071 40.594 54.9475C40.6988 54.9879 40.8111 55.0049 40.9231 54.9975C41.1734 55.0045 41.4165 54.9133 41.6011 54.7432V54.1126H40.9079V54.3821Z" fill="#AFB1B8"/>
<path d="M44.9226 53.3723H44.5988V54.9718H45.7194V54.6997H44.9226V53.3723Z" fill="#AFB1B8"/>
<path d="M48.3175 53.3723H47.9937V54.9718H48.3175V53.3723Z" fill="#AFB1B8"/>
<path d="M51.6365 54.4403L50.9813 53.3723H50.6676V54.9718H50.9686V53.9267L51.6112 54.9718H51.9325V53.3723H51.6365V54.4403Z" fill="#AFB1B8"/>
<path d="M54.6368 54.2674H55.4337V53.9953H54.6368V53.6444H55.4944V53.3723H54.313V54.9718H55.5273V54.6997H54.6368V54.2674Z" fill="#AFB1B8"/>
<path d="M61.9122 54.003H61.2823V53.3723H60.9611V54.9718H61.2823V54.2725H61.9122V54.9718H62.2335V53.3723H61.9122V54.003Z" fill="#AFB1B8"/>
<path d="M64.9302 54.2674H65.7296V53.9953H64.9302V53.6444H65.7903V53.3723H64.6089V54.9718H65.8206V54.6997H64.9302V54.2674Z" fill="#AFB1B8"/>
<path d="M69.0233 54.2674C69.3015 54.2241 69.4432 54.0766 69.4432 53.8224C69.4513 53.7543 69.441 53.6854 69.4134 53.6227C69.3858 53.5601 69.3419 53.5061 69.2863 53.4663C69.1415 53.3936 68.9799 53.3611 68.8183 53.3723H68.1404V54.9717H68.4617V54.303H68.5249C68.5934 54.2987 68.6619 54.3109 68.7247 54.3386C68.7717 54.3675 68.8108 54.4077 68.8386 54.4555L69.1877 54.9641H69.5722L69.3774 54.6513C69.2913 54.4969 69.1699 54.3653 69.0233 54.2674ZM68.6994 54.0461H68.4617V53.6444H68.7146C68.8248 53.6354 68.9357 53.6484 69.041 53.6825C69.0644 53.7031 69.0828 53.7288 69.095 53.7576C69.1072 53.7865 69.1127 53.8176 69.1113 53.8489C69.1098 53.8802 69.1014 53.9107 69.0866 53.9382C69.0718 53.9658 69.051 53.9896 69.0258 54.008C68.9202 54.0404 68.8096 54.0533 68.6994 54.0461Z" fill="#AFB1B8"/>
<path d="M72.1096 54.2674H72.9064V53.9953H72.1096V53.6444H72.9697V53.3723H71.7858V54.9718H73V54.6997H72.1096V54.2674Z" fill="#AFB1B8"/>
</svg>

<svg width="106" height="60" fill="none" xmlns="http://www.w3.org/2000/svg"><path fill-rule="evenodd" clip-rule="evenodd" d="M50.114 5.935h-.137c-.21-.013-.42-.018-.63-.023h-.455c-.397 0-.802.01-1.204.03a.625.625 0 0 0-.091 0A28.275 28.275 0 0 0 37.08 8.625l-.432.208v22.142l1.012-.344c.888-.305 1.834-.58 2.813-.834a34.329 34.329 0 0 1 8.095-1.075v2.909c-.362.002-.713.012-1.065.03h-.084a32.36 32.36 0 0 0-6.228.956 31.635 31.635 0 0 0-7.42 2.892V7.112a29.727 29.727 0 0 1 7.785-3.166A29.793 29.793 0 0 1 48.892 3h.427c.511.013 1.01.036 1.478.071 1.233.087 2.456.282 3.655.583v2.863a22.623 22.623 0 0 0-3.541-.534l-.073-.006c-.247-.021-.494-.042-.724-.042Zm5.039 2.926c.635.049 1.293.072 1.958.072a31.467 31.467 0 0 0 7.713-.99A31.777 31.777 0 0 0 72.24 5.05v27.89a29.815 29.815 0 0 1-7.786 3.166 29.943 29.943 0 0 1-7.337.944 22.405 22.405 0 0 1-5.565-.656V8.322c.43.1.873.191 1.323.267.739.125 1.518.216 2.277.272Zm14.194.217-1.012.34c-.93.313-1.87.593-2.813.842a34.263 34.263 0 0 1-8.406 1.078c-.66 0-1.267-.018-1.854-.056l-.807-.053V34.006l.693.06c.642.057 1.305.085 1.973.085a26.884 26.884 0 0 0 6.62-.857 27.764 27.764 0 0 0 5.174-1.86l.432-.208V9.078Z" fill="#AFB1B8"/><path d="M35.737 45.212a1.491 1.491 0 0 0-1.126-.455 1.674 1.674 0 0 0-.65.122 1.464 1.464 0 0 0-.832.842c-.08.2-.119.413-.116.628v3.794c-.01.267.042.533.149.778.09.194.219.368.38.509.151.127.329.22.52.27.185.051.376.078.567.078.211.002.42-.043.612-.132a1.598 1.598 0 0 0 .96-1.465v-.425h-.993v.339a.88.88 0 0 1-.058.338.608.608 0 0 1-.144.214.697.697 0 0 1-.415.145.504.504 0 0 1-.465-.204.898.898 0 0 1-.132-.509v-3.537c-.006-.196.036-.39.122-.567a.507.507 0 0 1 .485-.229.526.526 0 0 1 .443.214.806.806 0 0 1 .164.508v.328h.982v-.386a1.79 1.79 0 0 0-.121-.664 1.56 1.56 0 0 0-.332-.534ZM41.629 45.169a1.765 1.765 0 0 0-1.128-.417c-.202 0-.403.037-.592.107A1.559 1.559 0 0 0 39 45.7c-.1.231-.15.482-.145.734v3.64c-.007.255.043.51.145.744.09.196.22.37.384.509.152.14.33.25.524.32a1.711 1.711 0 0 0 1.72-.32c.158-.142.285-.315.374-.509.102-.234.151-.489.145-.745v-3.639a1.77 1.77 0 0 0-.145-.735 1.641 1.641 0 0 0-.374-.531Zm-.463 4.905a.656.656 0 0 1-.197.527.727.727 0 0 1-.934 0 .65.65 0 0 1-.197-.527v-3.639a.653.653 0 0 1 .197-.526.726.726 0 0 1 .934 0 .652.652 0 0 1 .197.526v3.64ZM49.367 51.7v-6.89h-.953l-1.253 3.647h-.017L45.88 44.81h-.943v6.89h.984v-4.191h.018l.963 2.962h.491l.971-2.962h.018v4.19h.984ZM54.958 45.294c-.151-.17-.343-.3-.556-.377a2.184 2.184 0 0 0-.714-.107h-1.462v6.89h.982v-2.691h.505c.307.014.611-.051.886-.188a1.43 1.43 0 0 0 .539-.527c.113-.183.19-.387.225-.6a4.9 4.9 0 0 0 .053-.783c.01-.331-.023-.662-.096-.984a1.468 1.468 0 0 0-.362-.633Zm-.506 2.1a.866.866 0 0 1-.091.358.552.552 0 0 1-.253.242 1.007 1.007 0 0 1-.463.087h-.448v-2.342h.506a.941.941 0 0 1 .443.086.556.556 0 0 1 .23.254c.054.121.083.252.086.384v.458c0 .16.01.325 0 .473h-.01ZM59.608 44.81h-.805l-1.518 6.89h.982l.288-1.48h1.339l.288 1.48h.981l-1.555-6.89Zm-.906 4.471.483-2.497h.018l.48 2.497h-.981ZM65.95 48.96h-.018l-1.482-4.15h-.944v6.89h.981v-4.143h.02l1.5 4.142h.924V44.81h-.981v4.15ZM71.948 44.81l-.79 2.74h-.02l-.79-2.74H69.31l1.348 3.978v2.911h.982v-2.911l1.348-3.977h-1.04ZM33 53.644h.473v1.328h.321v-1.328h.47v-.272H33v.272ZM36.977 53.372l-.62 1.6h.341l.132-.364h.638l.136.364h.35l-.636-1.6h-.341Zm-.05.967.217-.593.217.593h-.435ZM40.908 54.382h.37v.206a.613.613 0 0 1-.38.135.404.404 0 0 1-.34-.153.67.67 0 0 1-.118-.417c0-.356.154-.534.46-.534a.337.337 0 0 1 .362.255l.316-.062c-.068-.312-.293-.47-.678-.47a.804.804 0 0 0-.559.206.78.78 0 0 0-.23.615.872.872 0 0 0 .205.6.776.776 0 0 0 .607.235.96.96 0 0 0 .678-.255v-.63h-.693v.27ZM44.923 53.372h-.324v1.6h1.12V54.7h-.796v-1.328ZM48.318 53.372h-.324v1.6h.324v-1.6ZM51.636 54.44l-.655-1.068h-.313v1.6h.3v-1.045l.643 1.045h.322v-1.6h-.297v1.068ZM54.637 54.267h.797v-.272h-.797v-.35h.857v-.273h-1.181v1.6h1.214V54.7h-.89v-.433ZM61.912 54.003h-.63v-.63h-.32v1.599h.32v-.7h.63v.7h.322v-1.6h-.322v.631ZM64.93 54.267h.8v-.272h-.8v-.35h.86v-.273H64.61v1.6h1.212V54.7h-.89v-.433ZM69.023 54.267c.279-.043.42-.19.42-.445a.383.383 0 0 0-.157-.356.904.904 0 0 0-.468-.094h-.678v1.6h.322v-.669h.063a.428.428 0 0 1 .2.036c.047.029.086.069.114.117l.349.508h.384l-.195-.313a1.114 1.114 0 0 0-.354-.384Zm-.324-.22h-.237v-.403h.253a.838.838 0 0 1 .326.038.208.208 0 0 1 .046.256.208.208 0 0 1-.061.07.91.91 0 0 1-.327.038ZM72.11 54.267h.796v-.272h-.796v-.35h.86v-.273h-1.184v1.6H73V54.7h-.89v-.433Z" fill="#AFB1B8"/></svg>
